X:7
T: Szőlőhegyen keresztül
O: Ghymes (Nyitra), 1906
Q: "Allegretto grazioso" 1/4=132
M:2/4
L:1/4
K:C
A/A/A/G/ | A A/G/ | A/B/c/B/ | G ^F | D2 | 
c/B/A/G/ | F F/F/ | F/G/A/G/ | F E | D2 | 
c B/A/ | F/F/F/F/ | F/F/F/F/ | F C | D z | 
c B/A/ | F/F/F/F/ | F/F/F/F/ | F C | D z |

